packages/kaspersky-hexa-ui-icons/src/iconsSVGs/24/Pin.svg

<svg width="24" height="24" viewBox="0 0 24 24" fill="none" xmlns="http://www.w3.org/2000/svg">
<path fill-rule="evenodd" clip-rule="evenodd" d="M6 3C6 2.44772 6.44772 2 7 2H17C17.5523 2 18 2.44772 18 3C18 3.55228 17.5523 4 17 4H16V9C16 10.6569 17.3431 12 19 12C19.5523 12 20 12.4477 20 13C20 13.5523 19.5523 14 19 14H13V21C13 21.5523 12.5523 22 12 22C11.4477 22 11 21.5523 11 21V14H5C4.44772 14 4 13.5523 4 13C4 12.4477 4.44772 12 5 12C6.65685 12 8 10.6569 8 9V4H7C6.44772 4 6 3.55228 6 3ZM14.9996 12C14.3719 11.1643 14 10.1256 14 9V4H10V9C10 10.1256 9.62806 11.1643 9.00037 12H14.9996Z" fill="black"/>
</svg>

<svg xmlns="http://www.w3.org/2000/svg" width="24" height="24" fill="none" viewBox="0 0 24 24"><path fill="#000" fill-rule="evenodd" d="M6 3c0-.5523.4477-1 1-1h10c.5523 0 1 .4477 1 1s-.4477 1-1 1h-1v5c0 1.6569 1.3431 3 3 3 .5523 0 1 .4477 1 1s-.4477 1-1 1h-6v7c0 .5523-.4477 1-1 1s-1-.4477-1-1v-7H5c-.5523 0-1-.4477-1-1s.4477-1 1-1c1.6569 0 3-1.3431 3-3V4H7c-.5523 0-1-.4477-1-1m8.9996 9A4.978 4.978 0 0 1 14 9V4h-4v5a4.978 4.978 0 0 1-.9996 3z"/></svg>
